X: 656
T: Adrian's Delight
R: reel
M: 4/4
K: Gmajor
G,2 B,D GABA|GE (3EEE GEDB,|G,2 B,D GBdB|cBAF DGBc|
d2 Bd cBAF|G2 FD CA, (3A,A,A,|G,2 B,D GABc|1 ADBA GEDB,:|2 ADBA GABc||
d2 Bd cBAF|G2 FD FGAB|c3 d dcAG|FDBA GABc|
d2 BG dGBd|c2 A=F cFAF|GABc dcAG|1 FDBA GABc:|2 FDBA G4||

